X:307
T:Polska efter Ola Andersson, Huaröd
T:(SvL Skåne nr. 307)
S:efter [[Personer/Ola Andersson]]
R:Polska
B:Svenska Låtar Skåne
Z:Patrik Månsson, 2008-12-09
O:Huaröd, Skåne
N:Jämför +
M:3/4
L:1/8
Q:1/4=100
K:Dm
|: dD FA df | eA ce gf | ed gf ed | cB1/2c1/2 A2 A2 | dD FA df | eA ce gf |
ed gf ed | cB1/2c1/2 d2 d2 :: aF Fa af | gE Eg ge | f2 d2 gf1/2e1/2 | dB1/2c1/2 A2 A2 |
aF Fa af | gE Eg ge | fd aa gf | ed1/2c1/2 d2 d2 :|

